X:132
T:Rondeau 2
A:Gascogne
O:France
M:6/8
K:C
G2G A2A|BAG c2c|G2G A2A|BAG c3:|
|:e2 g gfe|dcd e2c|e2g gfe|ded c3:||
